brandFactory_export/3.Masa/Blog_3Masa.svg

<?xml version="1.0" encoding="UTF-8"?>
<svg width="24px" height="24px" viewBox="0 0 24 24" version="1.1" xmlns="http://www.w3.org/2000/svg" xmlns:xlink="http://www.w3.org/1999/xlink">
    <title>3.Masa/Blog_3Masa</title>
    <g id="Symbols" stroke="none" stroke-width="1" fill="none" fill-rule="evenodd">
        <g id="3.Masa/Blog_3Masa" fill="#5CB615" fill-rule="nonzero">
            <path d="M23.0285714,9.83529412 C22.6285714,9.44201681 22.1042017,9.2 21.5462185,9.15630252 C21.2033613,9.12941176 20.8605042,9.18655462 20.5411765,9.3210084 L20.5411765,4.56806723 C20.5411765,3.2 20.1647059,2.04033613 19.4252101,1.25714286 C18.6386555,0.423529412 17.4991597,0.00336134454 16.0436975,0.00336134454 L4.50084034,0.00336134454 C3.04537815,0.00336134454 1.90588235,0.423529412 1.11932773,1.25714286 C0.379831933,2.04033613 0.00336134454,3.2 0.00336134454,4.56806723 L0.00336134454,19.102521 C0.00336134454,20.4705882 0.379831933,21.5630252 1.11932773,22.3462185 C1.90588235,23.1798319 3.04201681,23.6 4.50084034,23.6 L16.0436975,23.6 C17.4991597,23.6 18.6386555,23.1798319 19.4252101,22.3462185 C20.1647059,21.5630252 20.5411765,20.4705882 20.5411765,19.102521 L20.5411765,15.3042017 C21.794958,14.1882353 22.8605042,13.2369748 23.0218487,13.0789916 C23.4722689,12.6352941 23.7109244,12.0840336 23.7142857,11.4857143 C23.707563,10.8672269 23.4621849,10.2756303 23.0285714,9.83529412 Z M4.56806723,5.04201681 L16.0436975,5.04201681 C16.4134454,5.04201681 16.7159664,5.34453782 16.7159664,5.71428571 C16.7159664,6.08403361 16.4134454,6.38655462 16.0436975,6.38655462 L4.56806723,6.38655462 C4.19831933,6.38655462 3.89579832,6.08403361 3.89579832,5.71428571 C3.89579832,5.34453782 4.19831933,5.04201681 4.56806723,5.04201681 Z M4.56806723,9.12268908 L16.0436975,9.12268908 C16.4134454,9.12268908 16.7159664,9.42521008 16.7159664,9.79495798 C16.7159664,10.1647059 16.4134454,10.4672269 16.0436975,10.4672269 L4.56806723,10.4672269 C4.19831933,10.4672269 3.89579832,10.1647059 3.89579832,9.79495798 C3.89579832,9.42521008 4.19831933,9.12268908 4.56806723,9.12268908 Z M4.56806723,13.2033613 L16.010084,13.2033613 C15.5092437,13.6470588 14.9915966,14.1042017 14.487395,14.5478992 L4.56806723,14.5478992 C4.19831933,14.5478992 3.89579832,14.2453782 3.89579832,13.8756303 C3.89579832,13.5058824 4.19831933,13.2033613 4.56806723,13.2033613 Z M11.9260504,18.6285714 L4.56806723,18.6285714 C4.19831933,18.6285714 3.89579832,18.3260504 3.89579832,17.9563025 C3.89579832,17.5865546 4.19831933,17.2840336 4.56806723,17.2840336 L12.3764706,17.2840336 L11.9260504,18.6285714 L11.9260504,18.6285714 Z M22.0773109,12.1210084 C21.805042,12.389916 17.9294118,15.8285714 15.3210084,18.1344538 L13.2840336,18.8067227 L13.9529412,16.8134454 C15.0487395,15.8453782 20.3630252,11.1529412 20.7327731,10.7831933 C20.9445378,10.5714286 21.1831933,10.4773109 21.4453782,10.4941176 C21.9630252,10.5310924 22.3630252,10.9579832 22.3663866,11.4756303 C22.3663866,11.7142857 22.2689076,11.9327731 22.0773109,12.1210084 L22.0773109,12.1210084 Z" id="Blog_3Masa"></path>
        </g>
    </g>
</svg>

<svg width="24" height="24" viewBox="0 0 24 24" xmlns="http://www.w3.org/2000/svg"><path d="M23.029 9.835a2.382 2.382 0 00-1.483-.679 2.151 2.151 0 00-1.005.165V4.568c0-1.368-.376-2.528-1.116-3.31C18.64.423 17.5.002 16.044.002H4.5c-1.456 0-2.595.42-3.382 1.254C.38 2.04.003 3.2.003 4.568v14.535c0 1.368.377 2.46 1.116 3.243.787.834 1.923 1.254 3.382 1.254h11.543c1.455 0 2.595-.42 3.381-1.254.74-.783 1.116-1.875 1.116-3.243v-3.799a202.301 202.301 0 002.48-2.225c.451-.444.69-.995.693-1.593a2.388 2.388 0 00-.685-1.65zM4.569 5.042h11.475c.37 0 .672.303.672.672 0 .37-.303.673-.672.673H4.568a.674.674 0 01-.672-.673c0-.37.302-.672.672-.672zm0 4.08h11.475c.37 0 .672.303.672.673 0 .37-.303.672-.672.672H4.568a.674.674 0 01-.672-.672c0-.37.302-.672.672-.672zm0 4.081H16.01c-.5.444-1.018.901-1.523 1.345H4.568a.674.674 0 01-.672-.672c0-.37.302-.673.672-.673zm7.357 5.426H4.568a.674.674 0 01-.672-.673c0-.37.302-.672.672-.672h7.808l-.45 1.345zm10.151-6.508c-.272.269-4.148 3.708-6.756 6.013l-2.037.673.669-1.994c1.096-.968 6.41-5.66 6.78-6.03.212-.212.45-.306.712-.289a.99.99 0 01.921.982.889.889 0 01-.289.645z" fill="#5CB615" fill-rule="nonzero"/></svg>
